symbols/web/all_out/materialsymbolsoutlined/all_out_wght100gradN25fill1_48px.svg

<svg xmlns="http://www.w3.org/2000/svg" height="48" width="48"><path d="M8.65 39.4v-5.8h1.1v4.7h4.6v1.1Zm25.05 0v-1.1h4.65v-4.7h1.1v5.8ZM24 35.7q-4.85 0-8.25-3.4-3.4-3.4-3.4-8.3t3.375-8.3Q19.1 12.3 24 12.3t8.325 3.4q3.425 3.4 3.425 8.3t-3.425 8.3Q28.9 35.7 24 35.7ZM8.65 14.25V8.6h5.7v1.1h-4.6v4.55Zm29.7 0V9.7H33.7V8.6h5.75v5.65Z"/></svg>

<svg xmlns="http://www.w3.org/2000/svg" height="48" width="48"><path d="M8.65 39.4V33.6H9.75V38.3H14.35V39.4ZM33.7 39.4V38.3H38.35V33.6H39.45V39.4ZM24 35.7Q19.15 35.7 15.75 32.3Q12.35 28.9 12.35 24Q12.35 19.1 15.725 15.7Q19.1 12.3 24 12.3Q28.9 12.3 32.325 15.7Q35.75 19.1 35.75 24Q35.75 28.9 32.325 32.3Q28.9 35.7 24 35.7ZM8.65 14.25V8.6H14.35V9.7H9.75V14.25ZM38.35 14.25V9.7H33.7V8.6H39.45V14.25Z"/></svg>
